packages/ui/public/icons/trello-icon.svg

<svg width="34" height="34" viewBox="0 0 34 34" fill="none" xmlns="http://www.w3.org/2000/svg">
<path d="M34 14.7152C34 2.59723 31.4028 0 19.2848 0H14.7152C2.59723 0 0 2.59723 0 14.7152V19.2848C0 31.4028 2.59723 34 14.7152 34H19.2848C31.4028 34 34 31.4028 34 19.2848V14.7152Z" fill="#0016DE"/>
<path fill-rule="evenodd" clip-rule="evenodd" d="M10.1488 8.5C9.24412 8.5 8.51074 9.23052 8.51074 10.1317V12.0324C8.51074 12.9336 9.24412 13.6641 10.1488 13.6641H13.047V24.2971C13.047 25.1983 13.7803 25.9288 14.685 25.9288H16.5932C17.4979 25.9288 18.2313 25.1983 18.2313 24.2971V12.0462C18.2313 12.0416 18.2313 12.037 18.2313 12.0324V10.1317C18.2313 9.23052 17.498 8.5 16.5933 8.5H14.685H10.1488Z" fill="white"/>
<path d="M22.1195 13.6641C23.5511 13.6641 24.7117 12.5081 24.7117 11.082C24.7117 9.65601 23.5511 8.5 22.1195 8.5C20.6879 8.5 19.5273 9.65601 19.5273 11.082C19.5273 12.5081 20.6879 13.6641 22.1195 13.6641Z" fill="white"/>
</svg>

<svg width="34" height="34" fill="none" xmlns="http://www.w3.org/2000/svg"><path d="M34 14.715C34 2.597 31.403 0 19.285 0h-4.57C2.597 0 0 2.597 0 14.715v4.57C0 31.403 2.597 34 14.715 34h4.57C31.403 34 34 31.403 34 19.285v-4.57Z" fill="#0016DE"/><path fill-rule="evenodd" clip-rule="evenodd" d="M10.149 8.5c-.905 0-1.638.73-1.638 1.632v1.9c0 .902.733 1.632 1.638 1.632h2.898v10.633c0 .901.733 1.632 1.638 1.632h1.908c.905 0 1.638-.73 1.638-1.632V10.132c0-.901-.733-1.632-1.638-1.632H10.15Z" fill="#fff"/><path d="M22.12 13.664a2.587 2.587 0 0 0 2.592-2.582A2.587 2.587 0 0 0 22.119 8.5a2.587 2.587 0 0 0-2.592 2.582 2.587 2.587 0 0 0 2.592 2.582Z" fill="#fff"/></svg>
